X:165
T: King of the Keys
T: Felix Dolan's
C: B.Black
L: 1/8
Q: 1/8=320
M: 4/4
R: hornpipe
K: G
dc|"G"BcBA G2 dc|"G"BcBA G2 AG|"D"FAFE D2 AG|"D"FAFE D2 ED|
"C"CEGE "D"DFAF|"G"GBdB "Am"ceag|"D"fd^cd "Am"=cAFG|"D"A2 F2 G2 :|
Bc|"G"dgfg "Em"edBc|"G"dgfg "Em"efga|"G"bged "Am"cAEF|"G"GdBG "D"A2 Bc|
"G"dgfg "C"eceg|"D"fdfa "Em"gfeB|"C"cBAG "D"FAFD|"Am"A2 "G"G2 G2 :|
